papirus/32x32/apps/latexila.svg

<svg height="32" viewBox="0 0 32 32.000001" width="32" xmlns="http://www.w3.org/2000/svg"><g transform="translate(0 -1020.3622)"><circle cx="16" cy="1036.3622" fill="#00b88a" r="14"/><path d="m16 1026.3622a11 11 0 0 0 -11 11 11 11 0 0 0  11 11 11 11 0 0 0  11-11 11 11 0 0 0 -11-11zm-2 2h2 2l-1 4-1 4-1-4zm-2.949219 1.2227l2.121094 3.5351 2.121094 3.5352-3.535157-2.1211-3.5351558-2.1211 1.4140626-1.4141zm9.898438 0l1.414062 1.414 1.414063 1.4141-3.535156 2.1211-3.535157 2.1211 2.121094-3.5352zm-13.949219 5.7773l4 1 4 1-4 1-4 1v-2zm18 0v2 2l-4-1-4-1 4-1zm-9.707031 2.707l-2.121094 3.5352-2.121094 3.5351-1.4140622-1.414-1.4140626-1.4141 3.5351558-2.1211zm1.414062 0l3.535157 2.1211 3.535156 2.1211-1.414063 1.4141-1.414062 1.414-2.121094-3.5351zm-.707031.293l1 4 1 4h-2-2l1-4z" opacity=".2"/><path d="m16 5a11 11 0 0 0 -11 11 11 11 0 0 0  11 11 11 11 0 0 0  11-11 11 11 0 0 0 -11-11zm-2 2h2 2l-1 4-1 4-1-4zm-2.949219 1.2226562l2.121094 3.5351558 2.121094 3.535157-3.535157-2.121094-3.5351558-2.121094 1.4140626-1.4140622zm9.898438 0l1.414062 1.4140626 1.414063 1.4140622-3.535156 2.121094-3.535157 2.121094 2.121094-3.535157zm-13.949219 5.7773438l4 1 4 1-4 1-4 1v-2zm18 0v2 2l-4-1-4-1 4-1zm-9.707031 2.707031l-2.121094 3.535157-2.121094 3.535156-1.4140622-1.414063-1.4140626-1.414062 3.5351558-2.121094zm1.414062 0l3.535157 2.121094 3.535156 2.121094-1.414063 1.414062-1.414062 1.414063-2.121094-3.535156zm-.707031.292969l1 4 1 4h-2-2l1-4z" fill="#fff763" transform="translate(0 1020.3622)"/><path d="m16 2a14 14 0 0 0 -14 14 14 14 0 0 0  .0214844.585938 14 14 0 0 1  13.9785156-13.585938 14 14 0 0 1  13.978516 13.414062 14 14 0 0 0  .021484-.414062 14 14 0 0 0 -14-14z" fill="#fff" opacity=".2" transform="translate(0 1020.3622)"/><path d="m29.978516 15.414062a14 14 0 0 1 -13.978516 13.585938 14 14 0 0 1 -13.9785156-13.414062 14 14 0 0 0 -.0214844.414062 14 14 0 0 0  14 14 14 14 0 0 0  14-14 14 14 0 0 0 -.021484-.585938z" opacity=".3" transform="translate(0 1020.3622)"/></g></svg>

<?xml version="1.0" encoding="UTF-8" standalone="no"?>
<!-- Created with Inkscape (http://www.inkscape.org/) -->

<svg
   xmlns:dc="http://purl.org/dc/elements/1.1/"
   xmlns:cc="http://creativecommons.org/ns#"
   xmlns:rdf="http://www.w3.org/1999/02/22-rdf-syntax-ns#"
   xmlns:svg="http://www.w3.org/2000/svg"
   xmlns="http://www.w3.org/2000/svg"
   xmlns:sodipodi="http://sodipodi.sourceforge.net/DTD/sodipodi-0.dtd"
   xmlns:inkscape="http://www.inkscape.org/namespaces/inkscape"
   width="32"
   height="32"
   viewBox="0 0 32 32.000001"
   id="svg4239"
   version="1.1"
   inkscape:version="0.91 r13725"
   sodipodi:docname="latexila.svg">
  <defs
     id="defs4241" />
  <sodipodi:namedview
     id="base"
     pagecolor="#ffffff"
     bordercolor="#666666"
     borderopacity="1.0"
     inkscape:pageopacity="0.0"
     inkscape:pageshadow="2"
     inkscape:zoom="1"
     inkscape:cx="14.74829"
     inkscape:cy="15.337245"
     inkscape:document-units="px"
     inkscape:current-layer="layer1"
     showgrid="false"
     units="px"
     showguides="false"
     inkscape:window-width="1535"
     inkscape:window-height="876"
     inkscape:window-x="65"
     inkscape:window-y="24"
     inkscape:window-maximized="1" />
  <metadata
     id="metadata4244">
    <rdf:RDF>
      <cc:Work
         rdf:about="">
        <dc:format>image/svg+xml</dc:format>
        <dc:type
           rdf:resource="http://purl.org/dc/dcmitype/StillImage" />
        <dc:title></dc:title>
      </cc:Work>
    </rdf:RDF>
  </metadata>
  <g
     inkscape:label="Layer 1"
     inkscape:groupmode="layer"
     id="layer1"
     transform="translate(0,-1020.3622)">
    <g
       id="g5336">
      <circle
         r="14"
         cy="1036.3622"
         cx="16"
         id="path4847"
         style="opacity:1;fill:#00b88a;fill-opacity:1;stroke:none;stroke-width:4;stroke-linecap:round;stroke-linejoin:round;stroke-miterlimit:4;stroke-dasharray:none;stroke-opacity:1" />
      <path
         inkscape:connector-curvature="0"
         style="opacity:0.2;fill:#000000;fill-opacity:1;stroke:none;stroke-width:4;stroke-linecap:round;stroke-linejoin:round;stroke-miterlimit:4;stroke-dasharray:none;stroke-opacity:1"
         d="m 16,1026.3622 a 11,11 0 0 0 -11,11 11,11 0 0 0 11,11 11,11 0 0 0 11,-11 11,11 0 0 0 -11,-11 z m -2,2 2,0 2,0 -1,4 -1,4 -1,-4 -1,-4 z m -2.949219,1.2227 2.121094,3.5351 2.121094,3.5352 -3.535157,-2.1211 -3.5351558,-2.1211 1.4140626,-1.4141 1.4140622,-1.414 z m 9.898438,0 1.414062,1.414 1.414063,1.4141 -3.535156,2.1211 -3.535157,2.1211 2.121094,-3.5352 2.121094,-3.5351 z M 7,1035.3622 l 4,1 4,1 -4,1 -4,1 0,-2 0,-2 z m 18,0 0,2 0,2 -4,-1 -4,-1 4,-1 4,-1 z m -9.707031,2.707 -2.121094,3.5352 -2.121094,3.5351 -1.4140622,-1.414 -1.4140626,-1.4141 3.5351558,-2.1211 3.535157,-2.1211 z m 1.414062,0 3.535157,2.1211 3.535156,2.1211 -1.414063,1.4141 -1.414062,1.414 -2.121094,-3.5351 -2.121094,-3.5352 z M 16,1038.3622 l 1,4 1,4 -2,0 -2,0 1,-4 1,-4 z"
         id="path5334" />
      <path
         id="path5298"
         transform="translate(0,1020.3622)"
         d="M 16 5 A 11 11 0 0 0 5 16 A 11 11 0 0 0 16 27 A 11 11 0 0 0 27 16 A 11 11 0 0 0 16 5 z M 14 7 L 16 7 L 18 7 L 17 11 L 16 15 L 15 11 L 14 7 z M 11.050781 8.2226562 L 13.171875 11.757812 L 15.292969 15.292969 L 11.757812 13.171875 L 8.2226562 11.050781 L 9.6367188 9.6367188 L 11.050781 8.2226562 z M 20.949219 8.2226562 L 22.363281 9.6367188 L 23.777344 11.050781 L 20.242188 13.171875 L 16.707031 15.292969 L 18.828125 11.757812 L 20.949219 8.2226562 z M 7 14 L 11 15 L 15 16 L 11 17 L 7 18 L 7 16 L 7 14 z M 25 14 L 25 16 L 25 18 L 21 17 L 17 16 L 21 15 L 25 14 z M 15.292969 16.707031 L 13.171875 20.242188 L 11.050781 23.777344 L 9.6367188 22.363281 L 8.2226562 20.949219 L 11.757812 18.828125 L 15.292969 16.707031 z M 16.707031 16.707031 L 20.242188 18.828125 L 23.777344 20.949219 L 22.363281 22.363281 L 20.949219 23.777344 L 18.828125 20.242188 L 16.707031 16.707031 z M 16 17 L 17 21 L 18 25 L 16 25 L 14 25 L 15 21 L 16 17 z "
         style="opacity:1;fill:#fff763;fill-opacity:1;stroke:none;stroke-width:4;stroke-linecap:round;stroke-linejoin:round;stroke-miterlimit:4;stroke-dasharray:none;stroke-opacity:1" />
      <path
         id="circle5272"
         transform="translate(0,1020.3622)"
         d="M 16 2 A 14 14 0 0 0 2 16 A 14 14 0 0 0 2.0214844 16.585938 A 14 14 0 0 1 16 3 A 14 14 0 0 1 29.978516 16.414062 A 14 14 0 0 0 30 16 A 14 14 0 0 0 16 2 z "
         style="opacity:0.2;fill:#ffffff;fill-opacity:1;stroke:none;stroke-width:4;stroke-linecap:round;stroke-linejoin:round;stroke-miterlimit:4;stroke-dasharray:none;stroke-opacity:1" />
      <path
         id="circle5277"
         transform="translate(0,1020.3622)"
         d="M 29.978516 15.414062 A 14 14 0 0 1 16 29 A 14 14 0 0 1 2.0214844 15.585938 A 14 14 0 0 0 2 16 A 14 14 0 0 0 16 30 A 14 14 0 0 0 30 16 A 14 14 0 0 0 29.978516 15.414062 z "
         style="opacity:0.3;fill:#000000;fill-opacity:1;stroke:none;stroke-width:4;stroke-linecap:round;stroke-linejoin:round;stroke-miterlimit:4;stroke-dasharray:none;stroke-opacity:1" />
    </g>
  </g>
</svg>
